X: 14837
T: Garey Ford
R: jig
M: 6/8
K: Eminor
~e3 edB|dBA ABd|~e3 edB|deg fed|
~e3 edB|dBA ABd|~e3 ede|1 fed efd:|2 fed efg||
|:a2g gfe|g2f- fed|~e3 edB|dBA ABd|
[1 a2g gfe|g2f- fga|bag fed|f2e- efg:|
[2 ~e3 edB|dBA ABd|~e3 ede|fed efd||

